icons/linear-ele-office-doc-remove-minus.svg

<svg xmlns="http://www.w3.org/2000/svg" width="32px" height="32px" viewBox="0 0 32 32" version="1.1">
    <title>linear-ele-office-doc-remove-minus</title>
    <g id="linear-ele-office-doc-remove-minus" stroke-width="1" fill-rule="evenodd">
        <path d="M20,2 C20.2652165,2 20.5195704,2.10535684 20.7071068,2.29289322 L27.7071068,9.29289322 C27.8946432,9.4804296 28,9.73478351 28,10 L28,29 C28,29.5522847 27.5522847,30 27,30 L5,30 C4.44771525,30 4,29.5522847 4,29 L4,3 C4,2.44771525 4.44771525,2 5,2 L20,2 Z M18,4 L6,4 L6,28 L26,28 L26,12 L19,12 C18.4477153,12 18,11.5522847 18,11 L18,4 Z M20,18 C20.5522847,18 21,18.4477153 21,19 C21,19.5522847 20.5522847,20 20,20 L12,20 C11.4477153,20 11,19.5522847 11,19 C11,18.4477153 11.4477153,18 12,18 L20,18 Z M20,4.415 L20,10 L25.585,10 L20,4.415 Z" id="&#24418;&#29366;" fill-rule="nonzero" />
    </g>
</svg>

<svg xmlns="http://www.w3.org/2000/svg" viewBox="0 0 32 32"><path fill="currentColor" d="M20 2a1 1 0 0 1 .707.293l7 7A1 1 0 0 1 28 10v19a1 1 0 0 1-1 1H5a1 1 0 0 1-1-1V3a1 1 0 0 1 1-1zm-2 2H6v24h20V12h-7a1 1 0 0 1-1-1zm2 14a1 1 0 0 1 0 2h-8a1 1 0 0 1 0-2zm0-13.585V10h5.585z"/></svg>
